X:1
T:Title
%%score 1 { 2 | 3 }
L:1/8
Q:1/4=95
M:2/4
K:Ab
V:1 treble nm="Grand Piano, Soprano"
V:2 bass nm="Choir Pad, Örebro, George Root, 1860"
V:3 bass 
V:1
 [Ec]2 [DB][CA] | [DF]>E [DF][CA] | [EB]2 [Ec]>[EA] | [EB]4 | [Ec]2 [DB][CA] | [DF]>E [DF][CA] | %6
w: By~George~Frederick~Root,~1860 * *||||||
 [EB]2 [Ec]>[DB] | [CA]4 | [Ee]2 [Ed][Ec] | [Ed]>[Ec] [EB]2 | [Ec]2 [EB][EA] | [EG]>[=DF] E2 | %12
w: ||||||
 [Ec]2 [DB][CA] | [DF]>E [DF][CA] | [EB]2 [Ec]>[DB] | [CA]4- | [CA]4 |] %17
w: |||||
V:2
 A,2 A,A, | A,>A, A,2 | G,2 A,>A, | G,4 | A,2 A,A, | A,>A, A,2 | G,2 G,>G, | A,4 | C2 B,A, | %9
 B,>A, G,2 | A,2 B,C | B,>A, G,2 | A,2 A,A, | A,>A, A,2 | G,2 G,>G, | A,4- | A,4 |] %17
V:3
 A,,2 A,,A,, | D,>C, D,F, | E,2 z z/ C,/ | E,4 | A,,2 A,,A,, | D,>C, D,F, | E,2 E,>E, | A,,4 | %8
 A,2 .A,2 | E,>E, E,2 | A,,2 G,,A,, | B,,>B,, E,2 | A,,2 A,,A,, | D,>C, D,F, | E,2 E,>E, | A,,4- | %16
 A,,4 |] %17

